X: 22198
T: La Boite A Frissons
R: waltz
M: 3/4
K: Aminor
|:E2|AB cA ec|B2 AB cA|ec BA Bc|f6|de fe fd|Bc dB dB|ed ce dc|B2 E2- E2|
AB cA ec|B2 AB cA|ec BA Bc|f6|de fa fd|cB cg ec|dc Bd cB|A4-:|
|:Ac|B2 B2 AB|c2 Gc e2|Bc de fd|e4- ee|fc Ac fc|ec Gc ec|dA ^FA dA|B2 B2 GA|
B2 B2 AB|c2 Gc e2|Bc de fa|g4 g2|de fa fd|cg eg ec|dc Bd cB|A4-:|

